icons/linear-ele-tool-edit-magnifier-plus-zoom-in.svg

<svg xmlns="http://www.w3.org/2000/svg" width="32px" height="32px" viewBox="0 0 32 32" version="1.1">
    <title>linear-ele-tool-edit-magnifier-plus-zoom-in</title>
    <g id="linear-ele-tool-edit-magnifier-plus-zoom-in" stroke-width="1" fill-rule="evenodd">
        <path d="M15,2 C22.1797017,2 28,7.82029825 28,15 C28,18.2296841 26.8222516,21.1842904 24.8728079,23.4577656 L29.7071068,28.2928932 C30.0976311,28.6834175 30.0976311,29.3165825 29.7071068,29.7071068 C29.3165825,30.0976311 28.6834175,30.0976311 28.2928932,29.7071068 L23.4577656,24.8728079 C21.1842904,26.8222516 18.2296841,28 15,28 C7.82029825,28 2,22.1797017 2,15 C2,7.82029825 7.82029825,2 15,2 Z M15,4 C8.92486775,4 4,8.92486775 4,15 C4,21.0751322 8.92486775,26 15,26 C21.0751322,26 26,21.0751322 26,15 C26,8.92486775 21.0751322,4 15,4 Z M15,10 C15.5522847,10 16,10.4477153 16,11 L16,14 L19,14 C19.5522847,14 20,14.4477153 20,15 C20,15.5522847 19.5522847,16 19,16 L16,16 L16,19 C16,19.5522847 15.5522847,20 15,20 C14.4477153,20 14,19.5522847 14,19 L14,16 L11,16 C10.4477153,16 10,15.5522847 10,15 C10,14.4477153 10.4477153,14 11,14 L14,14 L14,11 C14,10.4477153 14.4477153,10 15,10 Z" id="&#24418;&#29366;" fill-rule="nonzero" />
    </g>
</svg>

<svg xmlns="http://www.w3.org/2000/svg" viewBox="0 0 32 32"><path fill="currentColor" d="M15 2c7.18 0 13 5.82 13 13 0 3.23-1.178 6.184-3.127 8.458l4.834 4.835a1 1 0 0 1-1.414 1.414l-4.835-4.834A12.949 12.949 0 0 1 15 28C7.82 28 2 22.18 2 15S7.82 2 15 2m0 2C8.925 4 4 8.925 4 15s4.925 11 11 11 11-4.925 11-11S21.075 4 15 4m0 6a1 1 0 0 1 1 1v3h3a1 1 0 0 1 0 2h-3v3a1 1 0 0 1-2 0v-3h-3a1 1 0 0 1 0-2h3v-3a1 1 0 0 1 1-1"/></svg>
